X:901
T:St. Louis Waltz
S:Bruce & Emmett's Drummers and Fifers Guide (1862), p. 90
M:3/4
L:1/8
Q:1/4=180
K:D
%%MIDI program 72
%%MIDI transpose 8
%%MIDI ratio 3 1
A2|(Af)f3e|(df)A3F|(GB)B3G|(FA)A3A|(Ag)g3e|
dfA3A|(BA^GABc)|d2z2::A2|.g(A^GA).=g.A|.f(A^GA).f.A|
.e(A^GA).e.A|(FAd).fa2|.g(A^GA).=g.A|.f(A^GA).f.A|.e(A^GA).e.A|d2z2::
(3(dcB)|A2d2f2|(a2^g2a2)|(f2^e2f2)|(d2c2d2)|A2c2e2|
(g2f2g2)|(e2^d2e2)|(c2^B2c2)|A2d2f2|(a4g2)|f2d2B2|
b4b2|(^g<a) (g<a) (g<a)|A2B2c2|{e}dcdfec|d2z2:|
